X:1
T:Dying for the Knowledge of Jesus
T:Dying for the Knowledge of Jesus
T:Sanford Miller Brown
T:Sanford Miller Brown, 1889
T:Public Domain Courtesy of the Cyber Hymnal™
T:Public Domain Courtesy of the Cyber Hymnal™
C:Sanford Miller Brown
Z:Public Domain
Z:Courtesy of the Cyber Hymnal™
%%score ( 1 2 ) ( 3 4 )
L:1/8
Q:1/4=100
M:4/4
K:G
V:1 treble 
V:2 treble 
V:3 bass 
V:4 bass 
V:1
 [DB][DB][DB][CA] [B,G][B,G][B,G]D | [CE]2 [CE]2 [B,D]4 | G[GA][GB][Gd] [Ge][Gd][GB]G | %3
w: 1.~Bro- ther, hear the cr- y from the|dark do- main,|Where they have no know- ledge of the|
w: 2.~Dy- ing all un- con- scious of the|dead- ly ill;|Fren- zied by the fe- ver of the|
w: 3.~Sad- ly they are cry- ing, tho’ no|voice we hear;|Sink- ing to per- di- tion, yet they|
w: 4.~Christ- ian, you have feast- ed on the|Sav- ior’s love,|Tast- ed of the plea- sures of the|
 [GB]2 [GB]2 [FA]2 z2 | [DB][DB][DB][CA] [B,G][B,G][B,G]D | [CE]2 [CE]2 [B,D]4 | %6
w: Sav- ior’s name;|See the darken- ing ni- ght, hear the|plaint- ive cry,|
w: fa- tal chill;|Blind- ed by de- cep- tion of the|world’s dread foe;|
w: feel no fear;|Si- lent- ly they’re plead- ing by their|sin and shame,|
w: world a- bove;|Will you with in- diff- erence hear your|bro- ther’s cry,|
 G[GA][GB][Gd] [Ge][Gd][GB]G | [FA]2 [FA]2 G4 ||"^Refrain" [Gd][Gd][Gd][Gd] [Gd][Gd] z2 | %9
w: “Send us now the Gos- pel, or our|souls must die.”||
w: Stand- ing on the mar- gin of e-|ter- nal woe.||
w: Cry- ing for the know- ledge of the|Sav- ior’s name.||
w: “Send us now the Gos- pel, or our|souls must die”?||
 [Ge][Ge][Ge][GB] [Gd]2 z2 | !fermata![Gd][Gd][Ge][Gd] [DB]2 [EG]2 | [FA]6 z2 | %12
w: |||
w: |||
w: |||
w: |||
 [DB][DB][DB][CA] [B,G][B,G][B,G]D | [CE]2 [CE]2 [B,D]4 | G[GA][GB][Gd] [Ge][Gd][GB]G | %15
w: |||
w: |||
w: |||
w: |||
 [FA]2 [FA]2 G4 |] %16
w: |
w: |
w: |
w: |
V:2
 x7 D | x8 | G x5 G x | x8 | x7 D | x8 | G x5 G x | x4 G4 || x8 | x8 | x8 | x8 | x7 D | x8 | %14
 G x5 G x | x4 G4 |] %16
V:3
 G,G,G,G, G,G,G,[B,,G,] | G,2 G,2 G,4 | [G,B,][G,C][G,D][G,B,] [G,C][G,B,][G,D][G,B,] | %3
w: ~ ~ ~ ~ ~ ~ ~ ~|~ ~ ~|~ ~ ~ ~ ~ ~ ~ ~|
 [G,D]2 [G,D]2 [D,D]2 z2 | G,G,G,G, G,G,G,[B,,G,] | G,2 G,2 G,4 | %6
w: ~ ~ ~|~ ~ ~ ~ ~ ~ ~ ~|~ ~ ~|
 [G,B,][G,C][G,D][G,B,] [G,C][G,B,][G,D][G,B,] | [D,C]2 [D,C]2 [G,B,]4 || %8
w: ~ ~ ~ ~ ~ ~ ~ ~|~ ~ ~|
 [G,B,][G,B,][G,B,][G,B,] [G,B,][G,B,] z2 | [C,C][C,C][C,C][G,D] [G,B,]2 z2 | %10
w: Bro- ther, they are cry- ing,|cry- ing un- to you,|
 [G,B,][G,B,][G,C][G,B,] G,2 [E,B,]2 | [D,D]6 z2 | G,G,G,G, G,G,G,[B,,G,] | G,2 G,2 G,4 | %14
w: “Save us from e- ter- nal|shame”;|Trem- bling on the bri- nk of the|world of woe,|
 [G,B,][G,C][G,D][G,B,] [G,C][G,B,][G,D][G,B,] | [D,C]2 [D,C]2 [G,B,]4 |] %16
w: Dy- ing for the know- ledge of the|Sav- ior’s name.|
V:4
 G,G,G,G, G,G,G, x | (C,D,) (E,F,) G,4 | x8 | x8 | G,G,G,G, G,G,G, x | (C,D,) (E,F,) G,4 | x8 | %7
 x8 || x8 | x8 | x4 G,2 x2 | x8 | G,G,G,G, G,G,G, x | (C,D,) (E,F,) G,4 | x8 | x8 |] %16

